X:1
T:[ID 2-3a]
T:[ID 2-3a]
T:Bezeichnung standardisiert: [Menuet?]; In dieser Quelle auch als: Menuet
T:Urheber unbekannt Datum in der hier transkribierten schriftlichen Quelle: 1767
C:Urheber unbekannt
C:Datum in der hier transkribierten schriftlichen Quelle: 1767
L:1/8
M:none
K:G
V:1 treble 
V:1
 GGBBdd | g2 d2 d2 | eeddcc | BBAA G2 | d2 B2 B2 | c2 A2 A2 | G2 d2 cB | B2 A4 :: A2 AAAA | A4 Bc | %10
 B2 BBBB | B3 c d2 |"^1)" d2 d2 c2 B2 |"^1)" d2 d2 c2 B2 | e2 d2 A2 G2 | %15
 G4"^[Notat endet ohne Abschluss]" | %16

